X: 1228
T: A Bright May Morning
M:C|
L:1/8
R:Reel
B:O'Neill's 1228
N:Collected by McNamara
Z:Transcribed by Trish O'Neil
K:G
GgedB2(AG)|(3FED AD BDAD|GgedB2(AF)|DEGA BGG2::
TgedB cBcd|ea{b}a^g aeef|Tgedc BcBA|Ggga bgg2:|


